X: 679
T: Eviç Aranağme (Türkaksağı)
C: ?
O: Turkey
F: http://compmusic.upf.edu/node/140
N: evic--aranagme--turkaksagi--1--
N: makam= evic
N: form= aranagme
N: usul= turkaksagi = 5/8
M: 5/8
L: 1/16
K: C _1/4B ^f ^c 
Q: 1/4=108
%%MIDI tuningsystem comma53
f4 g2f2 ^3/4e2 | d3/2c/ d^3/4ef4z2  | \
w:  ARANAĞME  |   | 
^3/4e2f2 g2f2 e2 | ^3/4ed dcd4z2  | 
w:   |   | 
d2a2 g2^1/4f2 e2 | d=c dec2 B2A2  | A2B2 =c2B2 A2 | \
w:   |   |   | 
AG GFF4z2  | 
w:   | 
f4 g2f2 ^3/4e2 | d3/2c/ d^3/4ef4z2  | \
w:  ARANAĞME  |   | 
^3/4e2f2 g2f2 e2 | ^3/4ed dcd4z2  | 
w:   |   | 
d2a2 g2^1/4f2 e2 | d=c dec2 B2A2  | A2B2 =c2B2 A2 | \
w:   |   |   | 
AG GFF4z2  | 
w:   | 
|


